X:114
T:Da Briggie Stanes
C:Joe Buchanan's Scottish Tome - Page 196.1
I:196 1
C:Frank Jamieson
Z:Carl Allison
R:Jig
L:1/8
M:4/4
K:F
"F"C/F/F/E/  F/G/A/B/ | c/d/c/A/ "C"B/G/G | "Dm"D/G/G/A/ B/A/B/d/ | "G7"g/f/e/d/ "C7"c/B/A/G/ |
"F"C/F/F/E/ F/G/A/B/ | "F"c/d/c/A/ "C7"B/G/G | "Dm"D/G/G/A/ "Gm"B/d/"G7"g/f/ | "C7"e/c/B/G/ "F"F :|
"F"A/B/ | "F"c/f/e/g/ f/c/A/c/ | "F"f/e/f/g/ f/c/A/F/ | "B7"G/F/G/A/ B/A/B/d/ | "C7"g/f/e/d/ c/B/A/B/ |
"F"c/f/e/g/ f/c/A/c/ | "F"f/e/f/g/ f/c/A/F/ | "Bb"G/A/B/d/  g/f/e/d/  | "C7"c/A/B/G/  FA/B/ |
"F"c/f/e/g/ f/c/A/c/ | "F"f/e/f/g/ f/c/A/F/  | "B7"G/F/G/A/  B/A/B/d/ | "C7"g/f/e/d/ c/B/A/G/ |
"F"C/F/F/E/ F/G/A/B/  | "F" c/d/c/A/ "C7"B/G/G | "Dm"D/G/G/A/ "G7"B/d/g/f/ | "C7"e/c/B/G/ "F"F |]

